X:1
T:The Laird o' the Dainty Doonby
M:4/4
L:1/8
K:F
 E| D2 DD D2 E/2 G3/2| A2 A/2- G3/2 E2 E3/2 D/2| CC CC C2 E2| G3/2 G/2 A3/2 G/2 E2|\
 EC| DD DD D2 G2| AA c3/2 c/2 E3/2 E/2 EC| D2 cB A/2- G3/2 E2| D4|\
 D3||
